hero/outline/computer-desktop.svg

<svg width="24" height="24" viewBox="0 0 24 24" fill="none" xmlns="http://www.w3.org/2000/svg">
<path d="M9 17.25V18.2574C9 19.053 8.68393 19.8161 8.12132 20.3787L7.5 21H16.5L15.8787 20.3787C15.3161 19.8161 15 19.053 15 18.2574V17.25M21 5.25V15C21 16.2426 19.9926 17.25 18.75 17.25H5.25C4.00736 17.25 3 16.2426 3 15V5.25M21 5.25C21 4.00736 19.9926 3 18.75 3H5.25C4.00736 3 3 4.00736 3 5.25M21 5.25V12C21 13.2426 19.9926 14.25 18.75 14.25H5.25C4.00736 14.25 3 13.2426 3 12V5.25" stroke="#0F172A" stroke-width="1.5" stroke-linecap="round" stroke-linejoin="round"/>
</svg>

<svg viewBox="0 0 24 24" xmlns="http://www.w3.org/2000/svg"><path fill="none" stroke="#000" stroke-linecap="round" stroke-linejoin="round" stroke-width="1.5" d="M9 17.25v1l0-.001c0 .79-.32 1.55-.88 2.12l-.63.62h9l-.63-.63h-.001c-.57-.57-.88-1.33-.88-2.122v-1.01m6-12v9.75 0c0 1.24-1.01 2.25-2.25 2.25H5.22v0c-1.25 0-2.25-1.01-2.25-2.25v-9.75m18 0v0c0-1.25-1.01-2.25-2.25-2.25H5.22v0c-1.25 0-2.25 1-2.25 2.25m18 0v6.75 0c0 1.24-1.01 2.25-2.25 2.25H5.22v0c-1.25 0-2.25-1.01-2.25-2.25v-6.75"/></svg>
